src/3-context/security-guard.svg

<svg width="1300" height="1000" viewBox="0 0 1300 1000" fill="none" xmlns="http://www.w3.org/2000/svg"><path fill-rule="evenodd" clip-rule="evenodd" d="m206.82 251.321-3.825 14.025a17.124 17.124 0 0 1-.451 3.577c.183.373.362.75.537 1.131 2.01 4.383 2.917 8.615 2.919 13.398 0 1.803-.2 3.959-.486 5.742l-4.864 23.833a24.233 24.233 0 0 1-1.013 3.617c-1.041 2.793-3.202 8.177-5.313 10.829-2.925 3.676-7.167 6.929-11.675 8.613-3.769 1.408-10.807 1.91-12.649 1.914 0 0-8.301-.069-13.135-1.914-5.448-2.079-8.483-4.109-12.162-8.575-2.49-3.022-4.438-8.223-5.322-10.853-.362-1.079-.611-2.188-.801-3.31l-4.093-24.154s-.495-3.492-.487-5.742c.02-5.351.746-8.493 2.919-13.398.177-.4.353-.786.528-1.158a17.017 17.017 0 0 1-.445-3.551l-3.825-14.024a5 5 0 0 1 2.988-5.966l31.998-12.631a5.005 5.005 0 0 1 3.671 0l31.998 12.631a5 5 0 0 1 2.988 5.966Zm-61.717 18.802c.221-.387.447-.76.682-1.123h48.339c.259.4.509.808.75 1.222a6.003 6.003 0 0 1-5.876 4.778h-38a6.003 6.003 0 0 1-5.895-4.877Zm-3.02 7.002c-.78 2.491-1.072 4.74-1.083 7.907-.007 1.896.392 4.839.392 4.839l3.265 20.155c.174 1.079.403 2.145.741 3.184.739 2.271 2.275 6.477 4.224 8.951 2.963 3.764 5.408 5.474 9.797 7.226C163.313 330.941 170 331 170 331c1.484-.004 7.153-.427 10.189-1.613 3.632-1.419 7.049-4.16 9.406-7.258 1.649-2.168 3.337-6.503 4.202-8.91.408-1.135.706-2.302.937-3.486l3.874-19.862c.231-1.503.392-3.319.392-4.839-.001-2.787-.351-5.352-1.102-7.891a16.944 16.944 0 0 1-11.9 4.859h-32c-4.641 0-8.848-1.86-11.915-4.875ZM199.998 251l-3 11h-54l-3-11 30-11 30 11ZM67.074 469.164c0-1.663 5.902-56.128 23.43-92.163 15.049-29.175 37.06-34.545 75.179-34.979 36.975-.426 65.042 6.517 80.944 34.197 15.441 36.104 21.279 90.186 21.279 90.186l-1.766 103.916c19.997-4.248 38.686-9.324 54.86-15.172V543.5a3.5 3.5 0 1 1 7 0v13.863c53.968 19.552 96.032 30.418 161.2 30.418 36.293 0 107.967-5.619 157.8-29.998V543.5a3.5 3.5 0 1 1 7 0V900h-7V584.936c-49.933 22.99-121.638 28.355-157.8 28.355-64.802 0-106.954-9.997-161.2-28.941V900h-7V584.143c-15.756 5.489-33.857 10.233-53.199 14.207l.442 6.648c.813 12.227-10.681 21.602-22.495 18.346a2.227 2.227 0 0 1-1.565-1.592L239.5 603.5h-.5l7.504 114.501-1.5 156 17.523 8.158a16.76 16.76 0 0 1 9.477 17.842h-90.5l1.5-18a9.97 9.97 0 0 1-4.439-8.408l1.439-127.592-11.5-125-9 125v128a9.999 9.999 0 0 1-4 8l1.5 18H65l.022-.256a20 20 0 0 1 11.108-16.219l18.374-9.025-2-156.5L97.337 613H93.86l-2.721 9.525a.887.887 0 0 1-.613.61c-9.52 2.665-18.833-2.921-21.648-11.572-22.762-1.53-46.23-4.07-68.879-7.582v-6.096c22.337 3.656 45.496 6.341 68.021 7.984a18.4 18.4 0 0 1 .06-1.249l1.23-15.028c-22.897-1.527-46.518-4.076-69.311-7.611v-6.096c22.915 3.751 46.695 6.479 69.769 8.11l.95-11.624s-3.645-59.37-3.645-103.207ZM95.433 607.5h2.157l.414-8.999-2.571 8.999Zm171.95-15.445c19.528-4.193 37.779-9.18 53.617-14.906v-15.006c-16.148 5.626-34.758 10.468-54.642 14.501l1.025 15.411ZM73 472.47s6.44-56.684 22.98-91.955c14.201-28.558 34.989-31.07 70.96-31.495 34.892-.417 59.264 4.4 74.27 31.495 14.572 35.339 20.08 89.255 20.08 89.255l-2.593 104.085 2.208 32.16c.418 6.087-4.653 11.133-10.739 10.683a1.253 1.253 0 0 1-1.131-.977l-9.388-42.229-9.177-105.412-7.866-48.977a1.287 1.287 0 0 0-2.553.315l5.879 68.082 3 30.5 3 55.855 8.5 143.152-1.5 161.008 21.216 9.112a10 10 0 0 1 6.052 9.021l.064 3.852H188.43l2.09-23.01a5.002 5.002 0 0 1-5.032-5.05l1.197-127.82-13.38-145.808a4.503 4.503 0 0 0-8.973.045L152.42 744.135l.725 128.575a4.285 4.285 0 0 1-4.315 4.31l1.99 22.98H72.93c0-5.192 2.968-9.927 7.641-12.19l20.179-9.77-2.16-161.02L107.43 518l3-30 5.394-68.653a1.239 1.239 0 0 0-2.46-.28l-7.444 50.023-9.49 104.402-10.255 42.823a.452.452 0 0 1-.397.345c-5.467.512-10.125-3.927-9.875-9.413l1.537-33.755L73 472.47Zm416.2 120.821c36.162 0 107.867-5.365 157.8-28.355v12.847c-49.833 24.379-121.507 29.998-157.8 29.998-65.168 0-107.232-10.866-161.2-30.418V564.35c54.246 18.944 96.398 28.941 161.2 28.941Z" fill="#000"/></svg>

<svg width="1300" height="1000" viewBox="0 0 1300 1000" fill="none" xmlns="http://www.w3.org/2000/svg">
<path fill-rule="evenodd" clip-rule="evenodd" d="M206.82 251.321L202.995 265.346C202.97 266.575 202.815 267.771 202.544 268.923C202.727 269.296 202.906 269.673 203.081 270.054C205.091 274.437 205.998 278.669 206 283.452C206 285.255 205.8 287.411 205.514 289.194L200.65 313.027C200.399 314.256 200.075 315.468 199.637 316.644C198.596 319.437 196.435 324.821 194.324 327.473C191.399 331.149 187.157 334.402 182.649 336.086C178.88 337.494 171.842 337.996 170 338C170 338 161.699 337.931 156.865 336.086C151.417 334.007 148.382 331.977 144.703 327.511C142.213 324.489 140.265 319.288 139.381 316.658C139.019 315.579 138.77 314.47 138.58 313.348L134.487 289.194C134.487 289.194 133.992 285.702 134 283.452C134.02 278.101 134.746 274.959 136.919 270.054C137.096 269.654 137.272 269.268 137.447 268.896C137.179 267.752 137.026 266.565 137.002 265.345L133.177 251.321C132.506 248.861 133.794 246.291 136.165 245.355L168.163 232.724C169.342 232.259 170.655 232.259 171.834 232.724L203.832 245.355C206.203 246.291 207.491 248.861 206.82 251.321ZM145.103 270.123C145.324 269.736 145.55 269.363 145.785 269H194.124C194.383 269.4 194.633 269.808 194.874 270.222C194.309 272.95 191.893 275 188.998 275H150.998C148.069 275 145.629 272.9 145.103 270.123ZM142.083 277.125C141.303 279.616 141.011 281.865 141 285.032C140.993 286.928 141.392 289.871 141.392 289.871L144.657 310.026C144.831 311.105 145.06 312.171 145.398 313.21C146.137 315.481 147.673 319.687 149.622 322.161C152.585 325.925 155.03 327.635 159.419 329.387C163.313 330.941 170 331 170 331C171.484 330.996 177.153 330.573 180.189 329.387C183.821 327.968 187.238 325.227 189.595 322.129C191.244 319.961 192.932 315.626 193.797 313.219C194.205 312.084 194.503 310.917 194.734 309.733L198.608 289.871C198.839 288.368 199 286.552 199 285.032C198.999 282.245 198.649 279.68 197.898 277.141C194.832 280.147 190.631 282 185.998 282H153.998C149.357 282 145.15 280.14 142.083 277.125ZM199.998 251L196.998 262H142.998L139.998 251L169.998 240L199.998 251Z" fill="black"/>
<path fill-rule="evenodd" clip-rule="evenodd" d="M67.0742 469.164C67.0742 467.501 72.9763 413.036 90.5039 377.001C105.553 347.826 127.564 342.456 165.683 342.022C202.658 341.596 230.725 348.539 246.627 376.219C262.068 412.323 267.906 466.405 267.906 466.405L266.14 570.321C286.137 566.073 304.826 560.997 321 555.149V543.5C321 541.567 322.567 540 324.5 540C326.433 540 328 541.567 328 543.5V557.363C381.968 576.915 424.032 587.781 489.2 587.781C525.493 587.781 597.167 582.162 647 557.783V543.5C647 541.567 648.567 540 650.5 540C652.433 540 654 541.567 654 543.5V900H647V584.936C597.067 607.926 525.362 613.291 489.2 613.291C424.398 613.291 382.246 603.294 328 584.35V900H321V584.143C305.244 589.632 287.143 594.376 267.801 598.35L268.243 604.998C269.056 617.225 257.562 626.6 245.748 623.344C244.978 623.132 244.382 622.524 244.183 621.752L239.5 603.5H239L246.504 718.001L245.004 874.001L262.527 882.159C269.319 885.32 273.187 892.604 272.004 900.001H181.504L183.004 882.001C180.197 880.13 178.527 876.966 178.565 873.593L180.004 746.001L168.504 621.001L159.504 746.001V874.001C159.504 877.149 158.022 880.113 155.504 882.001L157.004 900.001H65L65.0223 899.745C65.6291 892.766 69.8427 886.614 76.13 883.526L94.5039 874.501L92.5039 718.001L97.3366 613H93.8614L91.14 622.525C91.0554 622.821 90.8232 623.052 90.5268 623.135C81.0066 625.8 71.6936 620.214 68.8785 611.563C46.1171 610.033 22.6497 607.493 0 603.981V597.885C22.337 601.541 45.4959 604.226 68.0211 605.869C68.0267 605.456 68.0464 605.04 68.0807 604.62L69.3104 589.592C46.4141 588.065 22.7929 585.516 0 581.981V575.885C22.915 579.636 46.6951 582.364 69.7685 583.995L70.7196 572.371C70.7196 572.371 67.0742 513.001 67.0742 469.164ZM95.4328 607.5H97.5897L98.0039 598.501L95.4328 607.5ZM267.383 592.055C286.911 587.862 305.162 582.875 321 577.149V562.143C304.852 567.769 286.242 572.611 266.358 576.644L267.383 592.055ZM72.9999 472.47C72.9999 472.47 79.4399 415.786 95.9799 380.515C110.181 351.957 130.969 349.445 166.94 349.02C201.832 348.603 226.204 353.42 241.21 380.515C255.782 415.854 261.29 469.77 261.29 469.77L258.697 573.855L260.905 606.015C261.323 612.102 256.252 617.148 250.166 616.698C249.615 616.658 249.155 616.26 249.035 615.721L239.647 573.492L230.47 468.08L222.604 419.103C222.504 418.479 221.965 418.02 221.333 418.02C220.578 418.02 219.986 418.666 220.051 419.418L225.93 487.5L228.93 518L231.93 573.855L240.43 717.007L238.93 878.015L260.146 887.127C263.763 888.681 266.132 892.212 266.198 896.148L266.262 900H188.43L190.52 876.99C187.727 877.007 185.461 874.733 185.488 871.94L186.685 744.12L173.305 598.312C173.093 595.994 171.148 594.22 168.821 594.22C166.476 594.22 164.523 596.02 164.332 598.357L152.42 744.135L153.145 872.71C153.159 875.098 151.218 877.037 148.83 877.02L150.82 900H72.9299C72.9299 894.808 75.8981 890.073 80.571 887.81L100.75 878.04L98.5899 717.02L107.43 518L110.43 488L115.824 419.347C115.881 418.622 115.305 418.005 114.579 418.011C113.969 418.016 113.454 418.464 113.364 419.067L105.92 469.09L96.4299 573.492L86.1753 616.315C86.1302 616.503 85.9704 616.642 85.7778 616.66C80.3107 617.172 75.6529 612.733 75.9027 607.247L77.4399 573.492L72.9999 472.47ZM489.2 593.291C525.362 593.291 597.067 587.926 647 564.936V577.783C597.167 602.162 525.493 607.781 489.2 607.781C424.032 607.781 381.968 596.915 328 577.363V564.35C382.246 583.294 424.398 593.291 489.2 593.291Z" fill="black"/>
</svg>
